!!!CDT:
!!!PTL: Il primo libro de madrigali a cinque voci
!!!PPP: Venice
!!!PPR: Vincenzi & Amadino
!!!PDT: 1584
!!!RISM: S 2631
!!!rime: 47
!!!AGN: Madrigal
!!!SCT: Trm0047g
!!!SCA: Trm0047g
!!!voices:
!!!COM: Scozzese, Agostino
!!!OTL: Non è questa la mano 
**kern	**text	**kern	**text	**kern	**text	**kern	**text	**kern	**text
*part5	*part5	*part4	*part4	*part3	*part3	*part2	*part2	*part1	*part1
*staff5	*staff5	*staff4	*staff4	*staff3	*staff3	*staff2	*staff2	*staff1	*staff1
*I"Basso	*	*I"Tenore	*	*I"Alto	*	*I"Quinto	*	*I"Canto	*
*I'B	*	*I'T	*	*I'A	*	*I'V	*	*I'C	*
*oclefF4	*	*oclefC4	*	*oclefC3	*	*oclefC1	*	*oclefC1	*
*clefF4	*	*clefGv2	*	*clefGv2	*	*clefG2	*	*clefG2	*
*k[b-]	*	*k[b-]	*	*k[b-]	*	*k[b-]	*	*k[b-]	*
*F:	*	*F:	*	*F:	*	*F:	*	*F:	*
*omet(C)	*	*omet(C)	*	*omet(C)	*	*omet(C)	*	*omet(C)	*
*M4/2	*	*M4/2	*	*M4/2	*	*M4/2	*	*M4/2	*
=1	=1	=1	=1	=1	=1	=1	=1	=1	=1
0r	.	2G	Non	2d	Non	2g	Non	2bnX	Non
.	.	4C	è	4c	è	4g	è	4cc	è
.	.	4.c	que-	4.e-X	que-	4.g	que-	4.cc	que-
.	.	8c	-sta	8e-i	-sta	8g	-sta	8cc	-sta
.	.	4d	la	4d	la	4f	la	4b-i	la
.	.	2A	ma-	[2c	ma-	2e	ma-	2a	ma-
=2	=2	=2	=2	=2	=2	=2	=2	=2	=2
2r	.	2A	-no,	2c]	.	2e	-no,	2a	-no,
2G	Non	4r	.	2BnX	-no,	2d	<Non	2r	.
.	.	2G	Non	.	.	.	.	.	.
4C	è	.	.	4r	.	4e	è	2r	.
4.F	que-	2A	è	2c	Non	4.a	que-	.	.
.	.	.	.	.	.	.	.	4r	.
8F	-sta	.	.	.	.	8a	-sta	.	.
4G	la	[4B-y	que-	4e-X	è	[4g	la	4g	<Non
=3	=3	=3	=3	=3	=3	=3	=3	=3	=3
2D	ma-	8B-]	.	4.d	que-	4g]	.	4dd	è
.	.	8B-y	-sta	.	.	.	.	.	.
.	.	4A	la	.	.	8fL	ma-	4.dd	que-
.	.	.	.	8c	.	8eJ	.	.	.
2D	-no,	4.d	ma-	4B-y	.	2f#X	.	.	.
.	.	.	.	.	.	.	.	8dd	-sta
.	.	.	.	4A	.	.	.	4a	la
.	.	8c	.	.	.	.	.	.	.
2r	.	4B-y	.	4G	-sta	4g	-no,>	4b-y	ma-
.	.	4A	.	4c	la	4c	Non	4cc	.
[2C	Non-	2G	.	4.e-X	ma-	4g	è	2g	-no,>
.	.	.	.	.	.	[4g	que-	.	.
.	.	.	.	8d	.	.	.	.	.
=4	=4	=4	=4	=4	=4	=4	=4	=4	=4
4C]	.	2G	-no	2c	.	8g]	.	2r	.
.	.	.	.	.	.	8g	-sta	.	.
4C	-è	.	.	.	.	4g	la	.	.
2G	que-	4r	.	2BnX	-no	4.g	ma-	4r	.
.	.	4G	Che	.	.	.	.	4bnX	Non
.	.	.	.	.	.	8f	.	.	.
4C	-sta	4G	tan-	4r	.	4e	.	4cc	è
4D	la	4F	-te e	4d	Che	4f	.	4.a	que-
2AA	ma-	4c	sì	2c	tan-	2e	.	.	.
.	.	.	.	.	.	.	.	8a	-sta
.	.	4c	mor-	.	.	.	.	4a	la
=5	=5	=5	=5	=5	=5	=5	=5	=5	=5
1D	-no	4.d	-ta-	2F	-te e	2d	-no	4.f	ma-
.	.	8c	.	.	.	.	.	8g	.
.	.	4B-y	.	2.f	sì	2r	.	8aL	.
.	.	.	.	.	.	.	.	8dJ	.
.	.	2A	-li,	.	.	.	.	2dd	.
1r	.	.	.	.	.	4r	.	.	.
.	.	4A	Che	4e	mor-	4a	Che	4cc#X	.
.	.	2D	tan-	2d	-ta-	[2a	tan-	2dd	-no
=6	=6	=6	=6	=6	=6	=6	=6	=6	=6
1r	.	4D	-te e	2d	-li,	4a]	.	4r	.
.	.	2d	sì	.	.	4a	-te e	4dd	Che
.	.	.	.	2r	.	4a	sì	4dd	tan-
.	.	4A	mor-	.	.	4a	mor-	4ccnXi	-te e
2r	.	2B-y	-ta-	4r	.	4f	-ta-	2.dd	sì
.	.	.	.	4d	Che	4g	.	.	.
2D	Che	2A	-li	[2d	tan-	2a	.	.	.
.	.	.	.	.	.	.	.	4dd	mor-
=7	=7	=7	=7	=7	=7	=7	=7	=7	=7
2GG	tan-	1r	.	4d]	.	1g	-li	4.b-y	-ta-
.	.	.	.	4d	-te e	.	.	.	.
.	.	.	.	.	.	.	.	8a	.
4GG	-te e	.	.	4d	sì	.	.	2g	.
2E-X	sì	.	.	4c	mor-	.	.	.	.
.	.	4r	.	2B-y	-ta-	1r	.	4g	-li,
4E-i	mor-	4c	Av-	.	.	.	.	4g	e
2F	-ta-	4c	-ven-	2A	-li	.	.	4cc	sì
.	.	4c	-tò	.	.	.	.	4a	mor-
=8	=8	=8	=8	=8	=8	=8	=8	=8	=8
4BB-y	-li	4B-y	nel	1r	.	4r	.	2dd	-ta-
4BB-y	Av-	4B-y	mio	.	.	4d	Av-	.	.
4C	-ven-	2A	cor,	.	.	4e	-ven-	4cc	-li
4D	-tò	.	.	.	.	4f	-tò	4a	Av-
4GG	nel	4r	.	4r	.	4g	nel	4b-y	-ven-
4GG	mio	4B-y	<Av-	4d	Av-	4g	mio	4g	-tò
2D	cor	4A	-ven-	[2d	-ven-	2a	cor	4g	nel
.	.	4A	-tò	.	.	.	.	4f#X	mio
=9	=9	=9	=9	=9	=9	=9	=9	=9	=9
0r	.	4B-y	nel	4d]	.	4r	.	1g	cor
.	.	4G	mio	4d	-tò	4d	fiam-	.	.
.	.	4C	cor>	4c	nel	4.e	-mel-	.	.
.	.	4C	fiam-	4c	mio	.	.	.	.
.	.	.	.	.	.	8f	.	.	.
.	.	8CL	-mel-	2c	cor	2g	.	2r	.
.	.	8D	.	.	.	.	.	.	.
.	.	8E	.	.	.	.	.	.	.
.	.	8FJ	.	.	.	.	.	.	.
.	.	8GL	.	4r	.	4d	-le,	4r	.
.	.	8E	.	.	.	.	.	.	.
.	.	8F	.	4c	fiam-	4a	fiam-	4a	fianm-
.	.	8GJ	.	.	.	.	.	.	.
=10	=10	=10	=10	=10	=10	=10	=10	=10	=10
1r	.	4A	.	4c	-mel-	4f	-mel-	4a	-mel-
.	.	8G	-le,	8B-y	-le,	4g	-l'e	8b-y	-le,
.	.	8G	fiam-	8d	fiam-	.	.	8b-y	<fiam-
.	.	4F	-mel-	4.d	-mel-	4a	stra-	4a	-mel-
.	.	4G	-l'e	.	.	8g	-li,	4.d	-le,>
.	.	.	.	8e	.	8g	fiam-	.	.
4r	.	4D	stra-	4f	.	4f	-mel-	.	.
.	.	.	.	.	.	.	.	8dd	fiam-
4G	fiam-	8E	-li,	8c	-le,	8e	-le	8cc	-mel-
.	.	8G	<fiam-	8d	fiam-	8d	fiam-	8b-y	-l'e
4F	-mel-	4A	-mel-	[2d	-mel-	4f	-mel-	4a	stra-
4G	-l'e	4B-y	-l'e	.	.	8d	-le,	8g	-li,
.	.	.	.	.	.	8e	<fiam-	8g	<fiam-
=11	=11	=11	=11	=11	=11	=11	=11	=11	=11
1D	stra-	4A	stra-	4d]	.	4f	-mel-	4f	-mel-
.	.	4G	.	4d	-l'e	2g	-l>'e	4e	-l'e
.	.	2A	.	2d	stra-	.	.	2d	stra-
.	.	.	.	.	.	4f#X	stra-	.	.
2GG	-li?	2G	-li?>	2BnX	-li?	2g	-li?	2d	-li?>
[2C	Ec-	[2G	Ec-	[2c	Ec-	[2g	Ec-	4r	.
.	.	.	.	.	.	.	.	[4e	Ec-
=12	=12	=12	=12	=12	=12	=12	=12	=12	=12
4C]	.	4G]	.	4c]	.	4g]	.	4e]	.
4C	-co	4G	-co	4c	-co	4g	-co	4e	-co
2C	che	2G	che	2c	che	2e	che	2g	che
4F	pur	4A	pur	4c	pur	4fnXi	pur	4f	pur
4C	si	4G	si	4c	si	4g	si	4e	si
2D	tro-	2F	tro-	2A	tro-	8dL	tro-	2d	tro-
.	.	.	.	.	.	8e	.	.	.
.	.	.	.	.	.	8f	.	.	.
.	.	.	.	.	.	8gJ	.	.	.
=13	=13	=13	=13	=13	=13	=13	=13	=13	=13
4AA	-va	4E	-va	1A	-va	2a	.	4c	-va
4A	Tra	4D	Tra	.	.	.	.	4f	Tra
4D	le	4.F	le	.	.	4a	-va	2.f	le
4D	mi	.	.	.	.	4a	Tra	.	.
.	.	8G	.	.	.	.	.	.	.
4F	man	8AL	.	4r	.	4a	le	.	.
.	.	8B-yJ	.	.	.	.	.	.	.
4C	ri-	2c	.	4G	Tra	4g	mie	4e	mie
2G	-stret-	.	.	4G	le	[2g	man	4d	man,
.	.	4BnX	mie	4G	mie	.	.	4dd	<Tra
=14	=14	=14	=14	=14	=14	=14	=14	=14	=14
4C	-ta,	2c	man,	2.g	man	4g]	.	4.cc	le
4C	Tra	.	.	.	.	4g	ri-	.	.
.	.	.	.	.	.	.	.	8cc	mie
4E	le	2r	.	.	.	4e	-stret-	4cc	man>
4D	mie	.	.	4d	ri-	4f	.	4dd	ri-
4C	man,	1r	.	2e-X	-stet-	2g	.	4.g	-stret-
4C	<Tra-	.	.	.	.	.	.	.	.
.	.	.	.	.	.	.	.	8a	.
4G	-le	.	.	2d	-ta,	2g	-ta,	2b-y	.
4G	mie	.	.	.	.	.	.	.	.
=15	=15	=15	=15	=15	=15	=15	=15	=15	=15
4A	man>	4r	.	4r	.	2r	.	2a	-ta
4F	ri-	4A	Tra	4f	Tra	.	.	.	.
4.G	-stret-	4B-y	le	4d	le	4r	.	2r	.
.	.	4G	mie	4enXi	mie	4g	Tra	.	.
16FL	.	.	.	.	.	.	.	.	.
16EJ	.	.	.	.	.	.	.	.	.
8DL	.	8F	man,	8fL	man	4a	le	1r	.
8CJ	.	8c	<Tra	8e	.	.	.	.	.
4D	.	8A	le	8d	.	4a	mie	.	.
.	.	8A	mie	8cJ	.	.	.	.	.
2GG	-ta	4B-y	man>	4d	ri-	[2g	man	.	.
.	.	4d	ri-	4d	-stret-	.	.	.	.
=16	=16	=16	=16	=16	=16	=16	=16	=16	=16
2r	.	1c	-stret-	4g	.	4g]	.	1r	.
.	.	.	.	2f	.	4cc	ri-	.	.
4r	.	.	.	.	.	2cc	-stret-	.	.
4C	Né	.	.	4e	.	.	.	.	.
2.F	for-	4A	-ta	1f	-ta	2cc	-ta	4r	.
.	.	4A	Né	.	.	.	.	4a	Né
.	.	4d	for-	.	.	2r	.	4.f	for-
4F	-z'od	4c	-z'od	.	.	.	.	.	.
.	.	.	.	.	.	.	.	8e	.
=17	=17	=17	=17	=17	=17	=17	=17	=17	=17
2BB-y	ar-	4.B-y	ar-	2r	.	1r	.	4d	.
.	.	.	.	.	.	.	.	4d	-z'od
.	.	8A	.	.	.	.	.	.	.
2C	-te	2G	.	4r	.	.	.	2e	ar-
.	.	.	.	4c	Né	.	.	.	.
1r	.	2A	-te,	4f	for-	4r	.	2c	-te,
.	.	.	.	4e	-z'od	4cc	Né	.	.
.	.	4r	.	2d	ar-	4a	for-	4r	.
.	.	4D	<Né	.	.	4b-y	-z'od	4f	Né
=18	=18	=18	=18	=18	=18	=18	=18	=18	=18
2r	.	4E	for-	2c	-te	2.cc	ar-	4g	for-
.	.	4F	-z'od	.	.	.	.	4a	-z'od
4r	.	2G	ar-	4r	.	.	.	2.g	ar-
2GG	per	.	.	2d	per	8b-yL	.	.	.
.	.	.	.	.	.	8aJ	.	.	.
.	.	1D	-te>	.	.	4b-y	.	.	.
4AA	fug-	.	.	4c	fug-	4cc	.	8fL	.
.	.	.	.	.	.	.	.	8eJ	.
4BB-y	-gir	.	.	4B-y	-gir	2dd	.	4d	-te
4GG	gli	.	.	4B-y	gli	.	.	[4d	per
=19	=19	=19	=19	=19	=19	=19	=19	=19	=19
1D	gio-	4r	.	2A	gio-	2dd	-te	4d]	.
.	.	2F	per	.	.	.	.	4d	fug-
.	.	.	.	2A	-va,	4r	.	4.f	-gir
.	.	4D	fug-	.	.	2d	per	.	.
.	.	.	.	.	.	.	.	8g	.
2D	-va,	4F	-gir	1r	.	.	.	4a	.
.	.	4G	gli	.	.	4g	fug-	4b-y	gli
2r	.	2A	gio-	.	.	4f	-gir	2cc	gio-
.	.	.	.	.	.	4g	gli	.	.
=20	=20	=20	=20	=20	=20	=20	=20	=20	=20
0r	.	4D	-va,	2r	.	4a	gio-	1dd	-va,
.	.	2G	per	.	.	4d	-va,	.	.
.	.	.	.	4r	.	2.dd	per	.	.
.	.	4G	fug-	2G	per	.	.	.	.
.	.	4B-y	-gir	.	.	.	.	2r	.
.	.	4c	gli	4A	fug-	4cc	fug-	.	.
.	.	4G	gio-	4B-y	-gir	8b-y	-gir	4r	.
.	.	.	.	.	.	8b-y	gli	.	.
.	.	4A	.	4c	gli	4a	gio-	4f	fug-
=21	=21	=21	=21	=21	=21	=21	=21	=21	=21
2.GG	<per	4B-y	.	2d	gio-	2g	-va,	4g	-gir
.	.	4c	.	.	.	.	.	4a	gli
.	.	2d	.	4d	-va,	2r	.	4.b-y	gio-
4AA	fug-	.	.	2f	<per	.	.	.	.
.	.	.	.	.	.	.	.	8a	.
4BB-y	-gir	2d	-va,	.	.	1r	.	2g	.
4C	gli	.	.	4e	fug-	.	.	.	.
2D	gio-	4r	.	4d	-gir	.	.	2f	-va,
.	.	4D	gli	4d	gli	.	.	.	.
=22	=22	=22	=22	=22	=22	=22	=22	=22	=22
1GG	-va,>	4.B-y	gio-	4.d	gio-	1r	.	4r	.
.	.	.	.	.	.	.	.	4d	gli
.	.	8A	.	8c	.	.	.	.	.
.	.	2G	.	2B-y	.	.	.	2e	gio-
2r	.	2D	-va,	2A	-va,>	2r	.	2f#X	-va,
2GG	Né	2G	Né	2B-y	Né	2dd	Né	2r	.
=23	=23	=23	=23	=23	=23	=23	=23	=23	=23
4D	tien	4FnXi	.	4A	tien	4a	tien	1r	.
4.BB-y	fa-	2B-y	fa-	2d	fa-	2b-y	fa-	.	.
8CL	.	.	.	.	.	.	.	.	.
8D	.	2A	-ce o	2d	-ce o	2f	-ce o	.	.
8EJ	.	.	.	.	.	.	.	.	.
4F	-ce o	.	.	.	.	.	.	4r	.
4G	sa-	4G	sa-	4B-y	sa-	4e-X	sa-	4g	Né
2D	-et-	2F#X	-et-	2A	-et-	2d	-et-	4a	tien
.	.	.	.	.	.	.	.	[4f#X	fa-
=24	=24	=24	=24	=24	=24	=24	=24	=24	=24
2D	-ta	2F#i	-ta	2A	-ta	2d	-ta	8f#]L	.
.	.	.	.	.	.	.	.	8g	.
.	.	.	.	.	.	.	.	8a	.
.	.	.	.	.	.	.	.	8b-yJ	.
4r	.	4r	.	4r	.	4r	.	4cc	.
2GG	Che	2G	Che	2B-y	Che	2d	Che	2b-y	-ce o
4GG	da	4G	da	4B-y	da	4d	da	4g	sa-
2D	me,	2FnXi	me,	2A	me,	2d	me,	2a	-et-
=25	=25	=25	=25	=25	=25	=25	=25	=25	=25
4r	.	2.B-y	Che	2.d	Che	4r	.	4f	-ta
2BB-y	Che	.	.	.	.	2f	Che	2b-y	Che
4BB-y	da	4B-y	da	4d	da	4f	da	4b-y	da
2F	me	2A	me	2c	me	2f	me	4cc	me
.	.	.	.	.	.	.	.	4c	la
4G	la	4G	la	4BnX	la	4d	la	4g	di-
4C	di-	4G	di-	4c	di-	4e-X	di-	[4g	-fen-
=26	=26	=26	=26	=26	=26	=26	=26	=26	=26
1D	-fen-	1d	-fen-	4A	-fen-	1d	-fen-	4g]	.
.	.	.	.	4G	.	.	.	8f#iL	.
.	.	.	.	.	.	.	.	8eJ	.
.	.	.	.	2A	.	.	.	2f#X	.
4GG	-da.	1BnX	-da.	4G	-da.	4d	-da.	1g	-da.
2G	Giu-	.	.	2d	Giu-	2g	Giu-	.	.
4G	-st'è	.	.	4d	-st'è	4g	-st'è	.	.
=27	=27	=27	=27	=27	=27	=27	=27	=27	=27
1C	ben,	4r	.	4c	ben,	2g	ben,	4r	.
.	.	2c	Giu-	2e	<Giu-	.	.	2g	Giu-
.	.	.	.	.	.	2r	.	.	.
.	.	4c	-st'è	4e	-st'è	.	.	4g	-st'è
1r	.	2F	ben	2f	ben>	2r	.	2a	ben,
.	.	4B-y	ch'io	4f	ch'io	4r	.	2r	.
.	.	4c	ne	4e-X	ne	[4g	<Giu-	.	.
=28	=28	=28	=28	=28	=28	=28	=28	=28	=28
1r	.	1G	pren-	2d	pren-	4g]	.	4r	.
.	.	.	.	.	.	4g	-st'è	2bnX	Giu-
.	.	.	.	2BnX	-da,	2g	ben>	.	.
.	.	.	.	.	.	.	.	4bnXi	-st'è
2.C	Giu-	1G	-da,	1r	.	4c	ch'io	4cc	ben,
.	.	.	.	.	.	4c	ne	2cc	Giu-
.	.	.	.	.	.	4.cc	pren-	.	.
4C	-st'è	.	.	.	.	.	.	4cc	-st'è
.	.	.	.	.	.	8b-y	.	.	.
=29	=29	=29	=29	=29	=29	=29	=29	=29	=29
2F	ben	2r	.	4r	.	2a	.	2cc	ben
.	.	.	.	4c	A-	.	.	.	.
4BB-y	ch'io	4r	.	4B-y	-mor,	2g	-da,	4dd	ch'io
4C	ne	4G	A-	4G	qual-	.	.	4cc	ne
1GG	pren-	2.G	-mor,	8GL	-che	4r	.	4bnX	pren-
.	.	.	.	8A	.	.	.	.	.
.	.	.	.	8BnXi	.	4g	A-	2cc	.
.	.	.	.	8cJ	.	.	.	.	.
.	.	.	.	4d	.	[2g	-mor,	.	.
.	.	4G	qual-	4d	ven-	.	.	4bnX	.
=30	=30	=30	=30	=30	=30	=30	=30	=30	=30
4C	-da,	4E	-che	2c	-det-	4g]	.	4cc	-da,
4C	A-	4E	ven-	.	.	4e	qual-	4cc	A-
2.F	-mor,	4.F	-det-	2A	-ta,	2.a	-che	2cc	-mor,
.	.	8G	.	.	.	.	.	.	.
.	.	4A	.	4r	.	.	.	1r	.
4G	qual-	8B-y	-ta	4d	qual-	4g	ven-	.	.
.	.	8B-y	qual-	.	.	.	.	.	.
4D	-che	4A	-che	4d	-che	4f	-det-	.	.
4E-X	ven-	4G	ven-	4c	ven-	[4g	.	.	.
=31	=31	=31	=31	=31	=31	=31	=31	=31	=31
1D	-det-	1A	-det-	1d	-det-	4g]	.	4r	.
.	.	.	.	.	.	8f#iL	.	4d	qual-
.	.	.	.	.	.	8eJ	.	.	.
.	.	.	.	.	.	2f#X	-ta,	4a	-che
.	.	.	.	.	.	.	.	4a	ven-
1D	-ta,	2F#X	-ta,	4d	-ta,	1r	.	2b-y	-det-
.	.	.	.	4d	E	.	.	.	.
.	.	4r	.	4d	se	.	.	4a	-ta,
.	.	4F#X	E	4d	pia-	.	.	4a	E
=32	=32	=32	=32	=32	=32	=32	=32	=32	=32
0r	.	4G	se	4e-X	-ghe	4r	.	4g	se
.	.	4G	pia-	4d	mi	4g	E	4b-y	pia-
.	.	4F#X	-ghe	2d	diè,	4a	se	4a	-ghe
.	.	4G	mi	.	.	4b-y	pia-	4g	mi
.	.	2D	diè,	1r	.	4cc	-ghe	4e	diè,
.	.	.	.	.	.	4cc	mi	4a	E
.	.	4r	.	.	.	4dd	diè,	4b-y	se
.	.	4c	E	.	.	4g	E	[4cc	pia-
=33	=33	=33	=33	=33	=33	=33	=33	=33	=33
1r	.	4c	se	4r	.	4a	se	8cc]	.
.	.	.	.	.	.	.	.	8cc	-ghe
.	.	4A	pia-	4c	E	4a	pia-	4cc	mi
.	.	4B-y	-ghe	4d	se	2g	-ghe	4b-y	diè,
.	.	4c	mi	4enXi	pia-	.	.	4g	<E
4r	.	2F	diè,	4c	-ghe	2f	mi	4a	se
4D	E	.	.	4d	mi	.	.	4bnX	pia-
4C	se	2r	.	2e	diè,	4e	diè,	4cc	-ghe
4AA	pia-	.	.	.	.	4a	ba-	4cc	mi
=34	=34	=34	=34	=34	=34	=34	=34	=34	=34
4.BB-y	-ghe	2r	.	4r	.	2g	-ci	1dd	diè,>
.	.	.	.	4d	<E	.	.	.	.
8C	.	.	.	.	.	.	.	.	.
4D	.	4r	.	4d	se	2f	le	.	.
4D	mi	4D	<E	4.d	pia-	.	.	.	.
2AA	diè,	2A	se	.	.	2e	ren-	2r	.
.	.	.	.	8d	-ghe	.	.	.	.
.	.	.	.	4c#X	mi	.	.	.	.
4r	.	2B-y	pia-	4d	diè>	2d	-da,	4r	.
4GG	<E	.	.	[4d	ba-	.	.	4d	E
=35	=35	=35	=35	=35	=35	=35	=35	=35	=35
4D	se	4A	-ghe	4d]	.	1r	.	4f	se
4E	pia-	4G	mi	8cnXiL	.	.	.	4g	pia-
.	.	.	.	8B-yJ	.	.	.	.	.
4F#X	-ghe	4D	diè>	4A	-ci	.	.	4a	-ghe
4G	mi	4d	ba-	4G	le	.	.	4bnX	mi
1C	diè>	4.c	-ci	4.e-X	ren-	2r	.	2cc	diè
.	.	8B-y	.	8d	.	.	.	.	.
.	.	4A	.	2c	.	4r	.	4r	.
.	.	4G	le	.	.	4cc	ba-	[4g	ba-
=36	=36	=36	=36	=36	=36	=36	=36	=36	=36
2r	.	2A	ren-	2c	-da,	4a	-ci	8g]	.
.	.	.	.	.	.	.	.	8g	-ci
.	.	.	.	.	.	4a	le	4f#X	le
4r	.	2G	-da,	4r	.	4.b-y	ren-	2g	ren-
4GG	ba-	.	.	4B-y	ba-	.	.	.	.
.	.	.	.	.	.	8a	.	.	.
2C	-ci	4r	.	2.c	-ci	2g	.	2c	-da,
.	.	4.G	ba-	.	.	.	.	.	.
2E-X	le	.	.	.	.	2g	-da,	4r	.
.	.	8G	-ci	.	.	.	.	.	.
.	.	4G	le	4G	le	.	.	4g	ba-
=37	=37	=37	=37	=37	=37	=37	=37	=37	=37
1D	ren-	1d	ren-	4A	ren-	2r	.	8f#i	-ci
.	.	.	.	.	.	.	.	8d	le
.	.	.	.	4B-y	.	.	.	2g	ren-
.	.	.	.	2A	.	2d	<ba-	.	.
.	.	.	.	.	.	.	.	4f#i	.
4GG	-da,	2BnX	-da,	[1Gl	-da.	2g	-ci	2g	-da,
4.G	ba-	.	.	.	.	.	.	.	.
.	.	4r	.	.	.	2c	le	4r	.
8FL	.	.	.	.	.	.	.	.	.
8E-X	.	[4c	<ba-	.	.	.	.	4g	<ba-
8DJ	.	.	.	.	.	.	.	.	.
=38	=38	=38	=38	=38	=38	=38	=38	=38	=38
4C	-ci	8c]	.	0G]	.	1g	ren-	4e	-ci
.	.	8c	-ci	.	.	.	.	.	.
4BBnX	le	4d	le	.	.	.	.	4d	le
2C	ren-	2c	ren-	.	.	.	.	2e	ren-
1GGl	-da.	1BnXl	-da.>	.	.	1gl	-da.>	1dl	-da.>
==	==	==	==	==	==	==	==	==	==
*-	*-	*-	*-	*-	*-	*-	*-	*-	*-
!!!system-decoration: [*]
!!!RDF**kern: i = editorial accidental
!!!RDF**kern: l = terminal long
!!!ENC: Emiliano Ricciardi
!!!END:
!!!EED: Ricciardi, Emiliano
!!!EEV: 2020/07/28
!!!YEC: Copyright 2018 Emiliano Ricciardi, All Rights Reserved
!!!ONB: Translated from MusicXML on 2020/07/28
!!@@BEGIN:	VERSEDATA
!!@SOLERTI:	47
!!@CATALOGNUM:	Trm0047
!!@LAST_MODIFIED: 2020/07/12
!!@TITLE:		Non è questa la mano
!!@GENRE:		madrigale/ballata
!!@MANUSRC:	Amz, Brn, C, E<sub>1</sub>, F<sub>2</sub>, I<sub>3</sub>, M<sub>7</sub>, P<sub>4</sub>, Tr<sub>2</sub>, V<sub>8</sub>, V<sub>13/E1</sub>
!!@PRINTSRC:	8, 9, 11, 12, 13, 15, 20, 24, 29, 33, 67, 145
!!@@BEGIN:	VERSES
!!@ABOUTIT:	Ballando con la sua donna desidera di fare amorosa vendetta de la sua mano ch’egli teneva stretta.
!!@ABOUTEN:	Dancing with his lady, he desires to take amorous revenge on the hand he held tight.
!!@EDITOR:	Solerti, Angelo
!!@EDITION_TITLE: Le Rime di Torquato Tasso
!!@EDITION_LOC:	Bologna
!!@EDITION_PUB:	Romagnoli-Dall’Acqua
!!@EDITION_DATE:  1898-1902
!!@EDITION_VOL:	2
!!@EDITION_PAGE:  71
!!@TRANSLATOR:	Emiliano Ricciardi and Amyrose McCue Gill
!!@VERSE:
!!	Non è questa la mano
!!	Che tante e sì mortali
!!	Avventò nel mio cor fiammelle e strali?
!!	Ecco che pur si trova
!!	Fra le mie man ristretta
!!	Né forza od arte per fuggir le giova,
!!	Né tien face o saetta
!!	Che da me la difenda.
!!	Giusto è ben ch'io ne prenda,
!!	Amor, qualche vendetta,
!!	E se piaghe mi diè baci le renda.
!!@TVERSE:
!!	Is this not the hand
!!	That so many and truly fatal
!!	Flames and arrows hurled at my heart?
!!	Yet here it is, to be found
!!	Held fast between my hands,
!!	Neither strength nor craft can help it escape,
!!	Nor does it hold a torch or a spear
!!	To defend her against me.
!!	It is just that I take,
!!	Love, some kind of revenge,
!!	And if she gave me wounds, may I give her kisses.
!!@@END:		VERSES
!!@OTHER_CRIT_ED:   Torquato Tasso, <i>Rime d’amore (secondo il codice
!!		Chigiano L VIII 302)</i>, eds. Franco Gavazzeni and
!!		Vercingetorige Martignone, vol. 4 of <i>Edizione
!!		Nazionale delle opere di Torquato Tasso</i>
!!		(Alessandria: Edizioni Dell’Orso, 2004), 34.
!!@ATTRIBUTION_ABOUT:	Secure
!!		<br>
!!		Among other authoritative sources (see Literary
!!		Sources), this poem appears in the autograph Chigiano
!!		L.VIII.302 (Biblioteca Vaticana, Rome), compiled
!!		around 1584&ndash;85.
!!@DATING:	Before 1579
!!		<br>
!!		Although Solerti dates this poem to the early 1560s,
!!		there is no hard evidence to support this dating.
!!		The earliest written testimony of “Non è questa la
!!		mano” is Benedetto Pallavicino’s musical setting,
!!		published in 1579 (Trm0047a).
!!@DEDICATEE:	Bendidio, Lucrezia
!!@DEDICATEE_INFO:
!!		In the autograph Chigiano L.VIII.302 (Biblioteca
!!		Vaticana, Rome), this poem appears among those
!!		addressed to Tasso’s <i>primo amore</i> (first love),
!!		identified as the Ferrarese singer and noblewoman
!!		<a target="_new" href="http://www.treccani.it/enciclopedia/lucrezia-bendidio_%28Dizionario-Biografico%29">Lucrezia Bendidio</a>
!!		(1547&ndash;after 1584). The poem itself, however, does not mention Lucrezia.
!!		As [Anthony Newcomb] {footnote: Anthony Newcomb, “The Ballata and the ‘Free’ Madrigal in
!!		the Second Half of the Sixteenth Century,” Journal
!!		of the American Musicological Society, vol. 63, no.
!!		3 (Fall 2010): 433&ndash;34.} has pointed out, this poem belongs to the
!!		hybrid genre of the ballata-madrigale.  More
!!		specifically, the opening tercet recalls the
!!		<i>ripresa</i> of a ballata, the central section
!!		the <i>piedi</i> (two pairs of <i>settenarii</i>
!!		separated by an <i>endecasillabo</i>), and the final
!!		tercet the <i>volta</i>. The poem is extremely rich
!!		of references to <i>topoi</i> that resonated with
!!		the culture of the time, such as courtly dance and
!!		the female hand–the latter is especially common in
!!		late sixteenth-century lyric poetry (see <i>Rime</i>
!!		315, 571, and 862). Counting 23 settings (see Musical
!!		Settings), “Non è questa la mano” is second only
!!		to “Ardi e gela a tua voglia” (<i>Rime</i> 418),
!!		whose musical fortune, however, is tied to that of
!!		Guarini’s <i>proposta</i> “Ardo sì, ma non t’amo.”
!!@@END:		VERSEDATA
!!@@BEGIN:	SETTING
!!@CATALOGNUM:	Trm0047g
!!@RIMETITLE:	Non è questa la mano
!!@SOLERTI:	47
!!@COMPOSER:	Scozzese, Agostino
!!@PRINCEPSTITLE:	Il primo libro de madrigali a cinque voci
!!@PRINCEPSLOC:	Venetia
!!@NORMLOC:	Venice
!!@NORMPUB:	Vincenzi & Amadino
!!@NORMPUBSHORT:	Vincenzi & Amadino
!!@PRINCEPSPUB:	Vincenti et Amadino
!!@PRINCEPSYEAR:	1584
!!@PRINCEPSRISM:	S 2631
!!@REPRINTS:	
!!@OVOICES:	5
!!@EXTANTVOICES:	5
!!@PARTBOOKS:	
!!@EXTPARTBOOKS:	
!!@OCLEFS:	C1,C1,C3,C4,F4
!!@OMENSURATION:	C
!!@OKEYSIG:	b-
!!@FINAL:	G
!!@TIMPEDITOR:	Ricciardi, Emiliano
!!@NOTE:		
!!@@END:		SETTING
